%
(Header)
(Generated by gcodetools from Inkscape.)
(Using default header. To add your own header create file "header" in the output dir.)
M3
(Header end.)
G21 (All units in mm)

(Start cutting path id: path58)
(Change tool to Default tool)

G00 Z5.000000
G00 X50.343665 Y-11.844877

G01 Z-1.000000 F100.0(Penetrate)
G01 X50.343665 Y-8.036539 Z-1.000000 F400.000000
G01 X52.974671 Y-8.036539 Z-1.000000
G01 X53.341606 Y-8.380054 Z-1.000000
G01 X53.341606 Y-11.918264 Z-1.000000
G01 X53.341606 Y-8.380054 Z-1.000000
G01 X53.685120 Y-8.036539 Z-1.000000
G01 X55.902348 Y-8.036539 Z-1.000000
G01 X56.292705 Y-8.426897 Z-1.000000
G01 X56.292705 Y-11.894062 Z-1.000000
G00 Z5.000000

(End cutting path id: path58)


(Start cutting path id: path57)
(Change tool to Default tool)

G00 Z5.000000
G00 X43.434331 Y-11.844877

G01 Z-1.000000 F100.0(Penetrate)
G01 X43.434331 Y-8.036539 Z-1.000000 F400.000000
G01 X46.065337 Y-8.036539 Z-1.000000
G01 X46.432273 Y-8.380054 Z-1.000000
G01 X46.432273 Y-11.918264 Z-1.000000
G01 X46.432273 Y-8.380054 Z-1.000000
G01 X46.775787 Y-8.036539 Z-1.000000
G01 X48.993015 Y-8.036539 Z-1.000000
G01 X49.383372 Y-8.426897 Z-1.000000
G01 X49.383372 Y-11.894062 Z-1.000000
G00 Z5.000000

(End cutting path id: path57)


(Start cutting path id: path56)
(Change tool to Default tool)

G00 Z5.000000
G00 X37.578978 Y-11.229672

G01 Z-1.000000 F100.0(Penetrate)
G01 X42.278876 Y-7.419772 Z-1.000000 F400.000000
G00 Z5.000000

(End cutting path id: path56)


(Start cutting path id: path56)
(Change tool to Default tool)

G00 Z5.000000
G00 X37.532136 Y-7.536880

G01 Z-1.000000 F100.0(Penetrate)
G01 X37.532136 Y-11.253874 Z-1.000000 F400.000000
G01 X37.977143 Y-11.672338 Z-1.000000
G01 X41.865098 Y-11.672338 Z-1.000000
G01 X42.325719 Y-11.229672 Z-1.000000
G01 X42.325719 Y-7.443194 Z-1.000000
G01 X41.935362 Y-7.052835 Z-1.000000
G01 X38.023985 Y-7.052835 Z-1.000000
G01 X37.532136 Y-7.536880 Z-1.000000
G00 Z5.000000

(End cutting path id: path56)


(Start cutting path id: path55)
(Change tool to Default tool)

G00 Z5.000000
G00 X31.731432 Y-10.958763

G01 Z-1.000000 F100.0(Penetrate)
G01 X31.731432 Y-11.229672 Z-1.000000 F400.000000
G01 X32.145211 Y-11.647746 Z-1.000000
G01 X36.080009 Y-11.647746 Z-1.000000
G01 X36.111237 Y-9.309108 Z-1.000000
G01 X31.708011 Y-9.309108 Z-1.000000
G01 X31.708011 Y-7.076257 Z-1.000000
G01 X36.080009 Y-7.076257 Z-1.000000
G00 Z5.000000

(End cutting path id: path55)


(Start cutting path id: rect19)
(Change tool to Default tool)

G00 Z5.000000
G00 X19.116224 Y-15.033765

G01 Z-1.000000 F100.0(Penetrate)
G01 X68.884151 Y-15.033765 Z-1.000000 F400.000000
G01 X68.884151 Y-64.801692 Z-1.000000
G01 X19.116224 Y-64.801692 Z-1.000000
G01 X19.116224 Y-15.033765 Z-1.000000
G00 Z5.000000

(End cutting path id: rect19)


(Start cutting path id: path7)
(Change tool to Default tool)

G00 Z5.000000
G00 X-0.000000 Y0.082442

G00 Z5.000000

(End cutting path id: path7)


(Footer)
M5
G00 X0.0000 Y0.0000
M2
(Using default footer. To add your own footer create file "footer" in the output dir.)
(end)
%