%
(Header)
(Generated by gcodetools from Inkscape.)
(Using default header. To add your own header create file "header" in the output dir.)
M3
(Header end.)
G21 (All units in mm)

(Start cutting path id: path17)
(Change tool to Default tool)

G00 Z2.000000
G00 X69.964979 Y-79.827539

G01 Z-0.200000 F100.0(Penetrate)
G01 X69.964979 Y-87.995127 Z-0.200000 F400.000000
G01 X70.971712 Y-88.994403 Z-0.200000
G01 X78.428994 Y-88.994403 Z-0.200000
G01 X79.118793 Y-88.349348 Z-0.200000
G01 X79.118793 Y-79.771610 Z-0.200000
G01 X79.118793 Y-91.982908 Z-0.200000
G01 X78.074773 Y-93.045571 Z-0.200000
G01 X71.493722 Y-93.045571 Z-0.200000
G00 Z2.000000

(End cutting path id: path17)


(Start cutting path id: path18)
(Change tool to Default tool)

G00 Z2.000000
G00 X63.924573 Y-76.434476

G01 Z-0.200000 F100.0(Penetrate)
G01 X63.924573 Y-80.312263 Z-0.200000 F400.000000
G01 X68.790450 Y-80.312263 Z-0.200000
G01 X63.924573 Y-80.312263 Z-0.200000
G01 X63.924573 Y-88.172237 Z-0.200000
G01 X64.577086 Y-88.876950 Z-0.200000
G01 X68.790450 Y-88.876950 Z-0.200000
G00 Z2.000000

(End cutting path id: path18)


(Start cutting path id: path19)
(Change tool to Default tool)

G00 Z2.000000
G00 X61.221305 Y-89.523870

G01 Z-0.200000 F100.0(Penetrate)
G01 X61.165376 Y-89.406417 Z-0.200000 F400.000000
G01 X61.165376 Y-79.883469 Z-0.200000
G00 Z2.000000

(End cutting path id: path19)


(Start cutting path id: path20)
(Change tool to Default tool)

G00 Z2.000000
G00 X60.867085 Y-77.310707

G01 Z-0.200000 F100.0(Penetrate)
G01 X60.867085 Y-76.546335 Z-0.200000 F400.000000
G01 X61.631456 Y-76.546335 Z-0.200000
G01 X61.631456 Y-77.310707 Z-0.200000
G01 X60.867085 Y-77.310707 Z-0.200000
G00 Z2.000000

(End cutting path id: path20)


(Start cutting path id: path21)
(Change tool to Default tool)

G00 Z2.000000
G00 X56.765574 Y-76.490406

G01 Z-0.200000 F100.0(Penetrate)
G01 X56.765574 Y-87.937333 Z-0.200000 F400.000000
G01 X57.809594 Y-88.994403 Z-0.200000
G01 X59.692557 Y-88.994403 Z-0.200000
G00 Z2.000000

(End cutting path id: path21)


(Start cutting path id: path22)
(Change tool to Default tool)

G00 Z2.000000
G00 X54.174165 Y-89.523870

G01 Z-0.200000 F100.0(Penetrate)
G01 X54.118236 Y-89.406417 Z-0.200000 F400.000000
G01 X54.118236 Y-79.883469 Z-0.200000
G00 Z2.000000

(End cutting path id: path22)


(Start cutting path id: path23)
(Change tool to Default tool)

G00 Z2.000000
G00 X53.819945 Y-77.310707

G01 Z-0.200000 F100.0(Penetrate)
G01 X53.819945 Y-76.546335 Z-0.200000 F400.000000
G01 X54.584316 Y-76.546335 Z-0.200000
G01 X54.584316 Y-77.310707 Z-0.200000
G01 X53.819945 Y-77.310707 Z-0.200000
G00 Z2.000000

(End cutting path id: path23)


(Start cutting path id: path24)
(Change tool to Default tool)

G00 Z2.000000
G00 X43.081445 Y-76.490406

G01 Z-0.200000 F100.0(Penetrate)
G01 X43.081445 Y-88.935677 Z-0.200000 F400.000000
G01 X50.948877 Y-88.935677 Z-0.200000
G01 X51.881038 Y-87.937333 Z-0.200000
G01 X51.881038 Y-81.244423 Z-0.200000
G01 X50.892948 Y-80.237690 Z-0.200000
G01 X43.845817 Y-80.237690 Z-0.200000
G01 X43.193305 Y-80.890202 Z-0.200000
G00 Z2.000000

(End cutting path id: path24)


(Start cutting path id: path25)
(Change tool to Default tool)

G00 Z2.000000
G00 X40.434108 Y-89.523870

G01 Z-0.200000 F100.0(Penetrate)
G01 X40.378178 Y-89.406417 Z-0.200000 F400.000000
G01 X40.378178 Y-79.883469 Z-0.200000
G00 Z2.000000

(End cutting path id: path25)


(Start cutting path id: path26)
(Change tool to Default tool)

G00 Z2.000000
G00 X40.079887 Y-77.310707

G01 Z-0.200000 F100.0(Penetrate)
G01 X40.079887 Y-76.546335 Z-0.200000 F400.000000
G01 X40.844258 Y-76.546335 Z-0.200000
G01 X40.844258 Y-77.310707 Z-0.200000
G01 X40.079887 Y-77.310707 Z-0.200000
G00 Z2.000000

(End cutting path id: path26)


(Start cutting path id: path27)
(Change tool to Default tool)

G00 Z2.000000
G00 X30.105758 Y-93.045571

G01 Z-0.200000 F100.0(Penetrate)
G01 X36.686809 Y-93.045571 Z-0.200000 F400.000000
G01 X37.730828 Y-91.982908 Z-0.200000
G01 X37.730828 Y-81.132564 Z-0.200000
G01 X36.686809 Y-80.069901 Z-0.200000
G01 X29.695607 Y-80.069901 Z-0.200000
G01 X28.632945 Y-81.132564 Z-0.200000
G01 X28.632945 Y-88.172237 Z-0.200000
G01 X29.509175 Y-89.053129 Z-0.200000
G01 X36.630879 Y-89.053129 Z-0.200000
G01 X37.674899 Y-87.995127 Z-0.200000
G00 Z2.000000

(End cutting path id: path27)


(Start cutting path id: path28)
(Change tool to Default tool)

G00 Z2.000000
G00 X26.768587 Y-89.053129

G01 Z-0.200000 F100.0(Penetrate)
G01 X18.416432 Y-89.053129 Z-0.200000 F400.000000
G01 X17.484272 Y-88.054785 Z-0.200000
G01 X17.484272 Y-81.244423 Z-0.200000
G01 X18.491005 Y-80.181760 Z-0.200000
G01 X25.295774 Y-80.181760 Z-0.200000
G01 X26.283864 Y-81.188493 Z-0.200000
G01 X26.283864 Y-84.581556 Z-0.200000
G01 X17.428342 Y-84.581556 Z-0.200000
G00 Z2.000000

(End cutting path id: path28)


(Start cutting path id: path29)
(Change tool to Default tool)

G00 Z2.000000
G00 X4.732326 Y-77.534425

G01 Z-0.200000 F100.0(Penetrate)
G01 X4.732326 Y-88.935677 Z-0.200000 F400.000000
G01 X16.365685 Y-88.935677 Z-0.200000
G00 Z2.000000

(End cutting path id: path29)


(Start cutting path id: path30)
(Change tool to Default tool)

G00 Z2.000000
G00 X67.103247 Y-45.934155

G01 Z-0.200000 F100.0(Penetrate)
G01 X70.636134 Y-54.805525 Z-0.200000 F400.000000
G00 Z2.000000

(End cutting path id: path30)


(Start cutting path id: path31)
(Change tool to Default tool)

G00 Z2.000000
G00 X73.674976 Y-45.990085

G01 Z-0.200000 F100.0(Penetrate)
G03 X71.724335 Y-51.570318 Z-0.200000 I184.698379 J-67.694698 F400.000000
G02 X69.677812 Y-57.109432 Z-0.200000 I-85.812858 J28.557448
G02 X68.570696 Y-58.098909 Z-0.200000 I-1.969425 J1.089461
G02 X67.103247 Y-58.275957 Z-0.200000 I-1.049752 J2.530842
G00 Z2.000000

(End cutting path id: path31)


(Start cutting path id: path32)
(Change tool to Default tool)

G00 Z2.000000
G00 X65.453315 Y-54.159537

G01 Z-0.200000 F100.0(Penetrate)
G02 X63.537245 Y-54.392143 Z-0.200000 I-1.176910 J1.686663 F400.000000
G02 X62.520800 Y-52.743927 Z-0.200000 I0.574548 J1.491846
G02 X62.464210 Y-49.433911 Z-0.200000 I46.804972 J2.455703
G03 X62.470394 Y-46.120587 Z-0.200000 I-101.237030 J1.845609
G01 X61.757917 Y-46.120587 Z-0.200000
G01 X65.285517 Y-46.120587 Z-0.200000
G01 X62.470394 Y-46.120587 Z-0.200000
G01 X62.470394 Y-43.473254 Z-0.200000
G00 Z2.000000

(End cutting path id: path32)


(Start cutting path id: path33)
(Change tool to Default tool)

G00 Z2.000000
G00 X57.529948 Y-54.569688

G01 Z-0.200000 F100.0(Penetrate)
G01 X57.529948 Y-45.934155 Z-0.200000 F400.000000
G00 Z2.000000

(End cutting path id: path33)


(Start cutting path id: path34)
(Change tool to Default tool)

G00 Z2.000000
G00 X57.000480 Y-42.354660

G01 Z-0.200000 F100.0(Penetrate)
G03 X57.415706 Y-43.184290 Z-0.200000 I0.508956 J-0.263994 F400.000000
G03 X57.940099 Y-42.573275 Z-0.200000 I0.076968 J0.464477
G03 X57.591710 Y-42.311949 Z-0.200000 I-0.230051 J0.056197
G02 X57.000480 Y-42.354660 Z-0.200000 I-0.339696 J0.588837
G01 X57.000480 Y-42.354660 Z-0.200000
G00 Z2.000000

(End cutting path id: path34)


(Start cutting path id: path35)
(Change tool to Default tool)

G00 Z2.000000
G00 X52.645422 Y-41.534360

G01 Z-0.200000 F100.0(Penetrate)
G02 X52.640664 Y-47.686830 Z-0.200000 I-445.036256 J-2.732042 F400.000000
G03 X52.682802 Y-53.827453 Z-0.200000 I211.057099 J-1.622145
G03 X53.016734 Y-54.387299 Z-0.200000 I0.770046 J0.079797
G03 X53.652143 Y-54.511894 Z-0.200000 I0.463110 J0.679236
G00 Z2.000000

(End cutting path id: path35)


(Start cutting path id: path36)
(Change tool to Default tool)

G00 Z2.000000
G00 X47.891400 Y-54.569688

G01 Z-0.200000 F100.0(Penetrate)
G01 X47.891400 Y-45.934155 Z-0.200000 F400.000000
G00 Z2.000000

(End cutting path id: path36)


(Start cutting path id: path37)
(Change tool to Default tool)

G00 Z2.000000
G00 X47.361932 Y-42.354660

G01 Z-0.200000 F100.0(Penetrate)
G03 X47.777157 Y-43.184290 Z-0.200000 I0.508956 J-0.263994 F400.000000
G03 X48.301551 Y-42.573275 Z-0.200000 I0.076968 J0.464477
G03 X47.953162 Y-42.311949 Z-0.200000 I-0.230051 J0.056197
G02 X47.361932 Y-42.354660 Z-0.200000 I-0.339696 J0.588837
G01 X47.361932 Y-42.354660 Z-0.200000
G00 Z2.000000

(End cutting path id: path37)


(Start cutting path id: path38)
(Change tool to Default tool)

G00 Z2.000000
G00 X37.320690 Y-41.478431

G01 Z-0.200000 F100.0(Penetrate)
G01 X37.320690 Y-54.569688 Z-0.200000 F400.000000
G02 X37.426064 Y-53.744204 Z-0.200000 I3.285233 J0.000105
G02 X38.092701 Y-53.592494 Z-0.200000 I0.372590 J-0.096711
G03 X39.627117 Y-54.387809 Z-0.200000 I2.986530 J3.884123
G03 X41.316560 Y-54.371646 Z-0.200000 I0.819533 J2.640946
G03 X43.487876 Y-52.204350 Z-0.200000 I-1.404333 J3.578258
G03 X43.843270 Y-49.193772 Z-0.200000 I-5.518859 J2.177758
G03 X43.278264 Y-47.123694 Z-0.200000 I-4.065308 J0.002561
G03 X41.487971 Y-45.901886 Z-0.200000 I-2.198166 J-1.298386
G03 X39.248028 Y-46.217319 Z-0.200000 I-0.762043 J-2.699419
G03 X37.432549 Y-47.518827 Z-0.200000 I8.785941 J-14.172520
G00 Z2.000000

(End cutting path id: path38)


(Start cutting path id: path39)
(Change tool to Default tool)

G00 Z2.000000
G00 X32.678526 Y-54.569688

G01 Z-0.200000 F100.0(Penetrate)
G01 X32.678526 Y-45.934155 Z-0.200000 F400.000000
G00 Z2.000000

(End cutting path id: path39)


(Start cutting path id: path40)
(Change tool to Default tool)

G00 Z2.000000
G00 X32.149059 Y-42.354660

G01 Z-0.200000 F100.0(Penetrate)
G03 X32.564283 Y-43.184288 Z-0.200000 I0.508955 J-0.263993 F400.000000
G03 X33.088675 Y-42.573275 Z-0.200000 I0.076968 J0.464475
G03 X32.740287 Y-42.311949 Z-0.200000 I-0.230051 J0.056197
G02 X32.149059 Y-42.354660 Z-0.200000 I-0.339695 J0.588836
G01 X32.149059 Y-42.354660 Z-0.200000
G00 Z2.000000

(End cutting path id: path40)


(Start cutting path id: path41)
(Change tool to Default tool)

G00 Z2.000000
G00 X23.990757 Y-54.101743

G01 Z-0.200000 F100.0(Penetrate)
G03 X22.788612 Y-55.386898 Z-0.200000 I3.990008 J-4.937117 F400.000000
G03 X22.502517 Y-57.076133 Z-0.200000 I1.627055 J-1.144408
G03 X24.293244 Y-58.349084 Z-0.200000 I2.726403 J1.939344
G03 X26.448692 Y-58.560085 Z-0.200000 I1.638818 J5.626270
G03 X28.239425 Y-57.882255 Z-0.200000 I-0.860792 J4.978446
G03 X29.509145 Y-56.448923 Z-0.200000 I-1.737640 J2.818349
G03 X29.282647 Y-55.074992 Z-0.200000 I-2.921084 J0.224084
G03 X28.104548 Y-54.288695 Z-0.200000 I-1.190517 J-0.508023
G03 X25.999551 Y-54.156196 Z-0.200000 I-1.405594 J-5.543333
G02 X23.929238 Y-54.078470 Z-0.200000 I-0.794540 J6.447885
G02 X22.991166 Y-52.902845 Z-0.200000 I0.538973 J1.392138
G02 X23.586921 Y-51.514341 Z-0.200000 I1.428060 J0.209333
G02 X24.622554 Y-51.246480 Z-0.200000 I0.623033 J-0.272871
G03 X25.740506 Y-51.505019 Z-0.200000 I0.844960 J1.107360
G03 X27.603230 Y-50.569123 Z-0.200000 I-0.426401 J3.170317
G03 X28.278694 Y-48.576487 Z-0.200000 I-1.743469 J1.701804
G03 X27.836264 Y-47.085789 Z-0.200000 I-2.778374 J-0.013600
G03 X26.638092 Y-46.064762 Z-0.200000 I-2.291778 J-1.475857
G01 X29.453215 Y-46.064762 Z-0.200000
G02 X27.449851 Y-46.062777 Z-0.200000 I-0.915324 J87.150554
G02 X25.477402 Y-45.901704 Z-0.200000 I0.179179 J14.351697
G03 X23.933865 Y-46.342996 Z-0.200000 I-0.257153 J-2.020653
G03 X23.015757 Y-47.644916 Z-0.200000 I1.865219 J-2.290028
G03 X22.991752 Y-49.482908 Z-0.200000 I3.005064 J-0.958400
G03 X24.102616 Y-50.986563 Z-0.200000 I2.591854 J0.752633
G00 Z2.000000

(End cutting path id: path41)


(Start cutting path id: path42)
(Change tool to Default tool)

G00 Z2.000000
G00 X13.069581 Y-49.923801

G01 Z-0.200000 F100.0(Penetrate)
G01 X19.535045 Y-49.923801 Z-0.200000 F400.000000
G03 X19.299772 Y-47.869401 Z-0.200000 I-5.275090 J0.436560
G03 X18.004298 Y-46.237324 Z-0.200000 I-2.813740 J-0.903243
G03 X16.296400 Y-45.794238 Z-0.200000 I-1.372986 J-1.779111
G03 X14.674428 Y-46.448878 Z-0.200000 I0.562033 J-3.729187
G03 X13.548580 Y-47.805973 Z-0.200000 I1.594426 J-2.468287
G03 X13.026982 Y-49.473569 Z-0.200000 I9.564947 J-3.907140
G03 X13.179324 Y-51.465381 Z-0.200000 I5.251474 J-0.600077
G03 X14.077560 Y-53.227551 Z-0.200000 I4.687614 J1.279417
G03 X16.349726 Y-54.533153 Z-0.200000 I2.610151 J1.912549
G03 X18.876003 Y-53.878414 Z-0.200000 I0.388722 J3.701260
G01 X19.002309 Y-53.811997 Z-0.200000
G01 X19.124893 Y-53.747538 Z-0.200000
G00 Z2.000000

(End cutting path id: path42)


(Start cutting path id: path43)
(Change tool to Default tool)

G00 Z2.000000
G00 X4.732328 Y-42.652952

G01 Z-0.200000 F100.0(Penetrate)
G01 X4.732328 Y-54.276990 Z-0.200000 F400.000000
G01 X10.604937 Y-54.276990 Z-0.200000
G00 Z2.000000

(End cutting path id: path43)


(Start cutting path id: path44)
(Change tool to Default tool)

G00 Z2.000000
G00 X72.593673 Y-11.462819

G01 Z-0.200000 F100.0(Penetrate)
G01 X78.652715 Y-20.090895 Z-0.200000 F400.000000
G01 X81.989848 Y-11.276389 Z-0.200000
G01 X75.893520 Y-27.309543 Z-0.200000
G00 Z2.000000

(End cutting path id: path44)


(Start cutting path id: path45)
(Change tool to Default tool)

G00 Z2.000000
G00 X67.839646 Y-6.876592

G01 Z-0.200000 F100.0(Penetrate)
G01 X68.137937 Y-19.268728 Z-0.200000 F400.000000
G01 X67.970148 Y-12.339050 Z-0.200000
G01 X64.379467 Y-12.339050 Z-0.200000
G01 X71.064922 Y-12.283121 Z-0.200000
G00 Z2.000000

(End cutting path id: path45)


(Start cutting path id: path46)
(Change tool to Default tool)

G00 Z2.000000
G00 X61.333162 Y-7.529105

G01 Z-0.200000 F100.0(Penetrate)
G01 X61.668740 Y-7.529105 Z-0.200000 F400.000000
G00 Z2.000000

(End cutting path id: path46)


(Start cutting path id: path47)
(Change tool to Default tool)

G00 Z2.000000
G00 X61.799242 Y-11.052670

G01 Z-0.200000 F100.0(Penetrate)
G01 X61.967031 Y-18.564017 Z-0.200000 F400.000000
G01 X62.321253 Y-18.916371 Z-0.200000
G00 Z2.000000

(End cutting path id: path47)


(Start cutting path id: path48)
(Change tool to Default tool)

G00 Z2.000000
G00 X57.324868 Y-6.522370

G01 Z-0.200000 F100.0(Penetrate)
G02 X57.447384 Y-12.573647 Z-0.200000 I-1818.127321 J-39.837425 F400.000000
G03 X57.623159 Y-18.623675 Z-0.200000 I289.113459 J5.372216
G00 Z2.000000

(End cutting path id: path48)


(Start cutting path id: path49)
(Change tool to Default tool)

G00 Z2.000000
G00 X52.869137 Y-7.529105

G01 Z-0.200000 F100.0(Penetrate)
G01 X53.204715 Y-7.529105 Z-0.200000 F400.000000
G00 Z2.000000

(End cutting path id: path49)


(Start cutting path id: path50)
(Change tool to Default tool)

G00 Z2.000000
G00 X53.335217 Y-11.052670

G01 Z-0.200000 F100.0(Penetrate)
G01 X53.503006 Y-18.564017 Z-0.200000 F400.000000
G01 X53.857228 Y-18.916371 Z-0.200000
G00 Z2.000000

(End cutting path id: path50)


(Start cutting path id: path51)
(Change tool to Default tool)

G00 Z2.000000
G00 X41.235763 Y-6.876592

G01 Z-0.200000 F100.0(Penetrate)
G01 X41.347622 Y-18.623675 Z-0.200000 F400.000000
G03 X43.790183 Y-18.664159 Z-0.200000 I1.261281 J2.393135
G02 X46.045711 Y-17.741850 Z-0.200000 I8.353375 J-17.209247
G02 X48.067031 Y-16.155797 Z-0.200000 I15.092587 J-17.153461
G03 X49.663578 Y-14.116973 Z-0.200000 I-2.527815 J3.623980
G03 X50.294687 Y-12.662509 Z-0.200000 I-10.278281 J5.324021
G03 X49.886435 Y-11.160253 Z-0.200000 I-1.287556 J0.456696
G03 X48.415267 Y-10.896942 Z-0.200000 I-1.122027 J-2.027478
G03 X46.975141 Y-11.142309 Z-0.200000 I6.285137 J-41.238215
G02 X44.906653 Y-12.520650 Z-0.200000 I-12.256920 J16.152792
G03 X43.010738 Y-14.076468 Z-0.200000 I3.850057 J-6.624755
G01 X41.478132 Y-16.272676 Z-0.200000
G00 Z2.000000

(End cutting path id: path51)


(Start cutting path id: path52)
(Change tool to Default tool)

G00 Z2.000000
G00 X37.190183 Y-7.529105

G01 Z-0.200000 F100.0(Penetrate)
G01 X37.525761 Y-7.529105 Z-0.200000 F400.000000
G00 Z2.000000

(End cutting path id: path52)


(Start cutting path id: path53)
(Change tool to Default tool)

G00 Z2.000000
G00 X37.656263 Y-11.052670

G01 Z-0.200000 F100.0(Penetrate)
G01 X37.824052 Y-18.564017 Z-0.200000 F400.000000
G01 X38.178274 Y-18.916371 Z-0.200000
G00 Z2.000000

(End cutting path id: path53)


(Start cutting path id: path54)
(Change tool to Default tool)

G00 Z2.000000
G00 X33.890301 Y-14.520305

G01 Z-0.200000 F100.0(Penetrate)
G02 X32.866252 Y-16.236693 Z-0.200000 I-34.493908 J19.416443 F400.000000
G02 X31.401363 Y-17.625316 Z-0.200000 I-3.463764 J2.187017
G02 X29.651041 Y-18.709737 Z-0.200000 I-3.539081 J3.757522
G02 X27.696415 Y-19.268728 Z-0.200000 I-4.680591 J12.669757
G02 X26.392379 Y-19.137089 Z-0.200000 I-0.488659 J1.684072
G02 X25.945299 Y-17.927688 Z-0.200000 I0.447988 J0.852945
G02 X26.922265 Y-15.525787 Z-0.200000 I6.860532 J-1.390859
G02 X28.384122 Y-13.411534 Z-0.200000 I33.391761 J-21.525541
G03 X30.257153 Y-11.887728 Z-0.200000 I-15.323037 J20.747806
G02 X32.654421 Y-11.379481 Z-0.200000 I1.641589 J-1.835182
G02 X33.704795 Y-12.186261 Z-0.200000 I-0.535607 J-1.784475
G02 X33.936271 Y-13.511471 Z-0.200000 I-1.545579 J-0.952789
G03 X34.138952 Y-18.603758 Z-0.200000 I71.082827 J0.279036
G02 X33.853798 Y-23.677292 Z-0.200000 I-19.280882 J-1.461112
G02 X32.809899 Y-25.944913 Z-0.200000 I-9.225480 J2.872858
G02 X30.560735 Y-27.153476 Z-0.200000 I-2.187962 J1.374694
G02 X29.205444 Y-27.182169 Z-0.200000 I-0.862200 J8.702792
G03 X27.849893 Y-27.141824 Z-0.200000 I-1.434306 J-25.398202
G00 Z2.000000

(End cutting path id: path54)


(Start cutting path id: path55)
(Change tool to Default tool)

G00 Z2.000000
G00 X16.235173 Y-13.867793

G01 Z-0.200000 F100.0(Penetrate)
G02 X19.645416 Y-13.803437 Z-0.200000 I2.605504 J-47.679989 F400.000000
G03 X23.039943 Y-13.457642 Z-0.200000 I0.243460 J14.444246
G03 X22.766810 Y-11.852935 Z-0.200000 I-0.917276 J0.669471
G02 X21.567130 Y-10.810308 Z-0.200000 I4.021285 J5.838528
G03 X19.728903 Y-10.865825 Z-0.200000 I-0.675525 J-8.093244
G03 X17.972284 Y-11.426884 Z-0.200000 I0.801262 J-5.539102
G03 X16.759088 Y-12.561834 Z-0.200000 I2.247836 J-3.618699
G03 X16.057190 Y-14.076252 Z-0.200000 I3.619299 J-2.597327
G03 X15.543494 Y-15.668536 Z-0.200000 I13.658245 J-5.285371
G03 X15.503450 Y-17.276357 Z-0.200000 I3.413063 J-0.889415
G03 X16.606119 Y-18.498422 Z-0.200000 I2.971614 J1.572786
G03 X18.043564 Y-19.268728 Z-0.200000 I4.657562 J6.964996
G03 X21.002242 Y-18.942306 Z-0.200000 I-1.480393 J26.990120
G03 X23.642452 Y-17.603003 Z-0.200000 I-0.810855 J4.870478
G01 X23.860244 Y-17.335428 Z-0.200000
G00 Z2.000000

(End cutting path id: path55)


(Start cutting path id: path56)
(Change tool to Default tool)

G00 Z2.000000
G00 X4.900115 Y-6.876592

G01 Z-0.200000 F100.0(Penetrate)
G03 X4.957178 Y-12.867893 Z-0.200000 I1845.693279 J14.583030 F400.000000
G02 X4.732326 Y-18.856713 Z-0.200000 I-61.582626 J-0.686496
G02 X9.281835 Y-18.877688 Z-0.200000 I1.530045 J-161.543396
G02 X13.830209 Y-18.974165 Z-0.200000 I-16.893041 J-903.672092
G00 Z2.000000

(End cutting path id: path56)


(Footer)
M5
G00 X0.0000 Y0.0000
M2
(Using default footer. To add your own footer create file "footer" in the output dir.)
(end)
%