%
(Header)
(Generated by gcodetools from Inkscape.)
(Using default header. To add your own header create file "header" in the output dir.)
M3
(Header end.)
G21 (All units in mm)

(Start cutting path id: path49)
(Change tool to Default tool)

G00 Z2.000000
G00 X50.500046 Y-13.107853

G01 Z-0.200000 F100.0(Penetrate)
G01 X50.500046 Y-9.205462 Z-0.200000 F400.000000
G01 X53.555767 Y-9.253424 Z-0.200000
G01 X53.599434 Y-9.299398 Z-0.200000
G03 X53.572050 Y-11.313433 Z-0.200000 I45.286512 J-1.622963
G01 X53.572050 Y-13.183053 Z-0.200000
G01 X53.583355 Y-9.255071 Z-0.200000
G02 X55.100646 Y-9.255898 Z-0.200000 I0.741483 J-31.488161
G03 X56.599588 Y-9.255759 Z-0.200000 I0.746658 J30.304290
G02 X56.598153 Y-11.179499 Z-0.200000 I-55.829371 J-0.920212
G03 X56.596054 Y-13.158262 Z-0.200000 I58.493150 J-1.051436
G00 Z2.000000

(End cutting path id: path49)


(Start cutting path id: path48)
(Change tool to Default tool)

G00 Z2.000000
G00 X43.420045 Y-13.107853

G01 Z-0.200000 F100.0(Penetrate)
G01 X43.420045 Y-9.205462 Z-0.200000 F400.000000
G01 X46.432584 Y-9.205462 Z-0.200000
G02 X46.457972 Y-10.174366 Z-0.200000 I-350.141579 J-9.659625
G03 X46.492049 Y-11.313433 Z-0.200000 I111.819917 J2.775235
G01 X46.492049 Y-13.183053 Z-0.200000
G01 X46.446830 Y-9.240926 Z-0.200000
G03 X48.020423 Y-9.235317 Z-0.200000 I0.516789 J75.755374
G02 X49.530892 Y-9.221837 Z-0.200000 I2.096428 J-150.268088
G02 X49.530713 Y-9.287753 Z-0.200000 I-1.591382 J-0.028632
G03 X49.516054 Y-13.158254 Z-0.200000 I98.515725 J-2.308396
G00 Z2.000000

(End cutting path id: path48)


(Start cutting path id: path47)
(Change tool to Default tool)

G00 Z2.000000
G00 X37.340056 Y-8.253809

G01 Z-0.200000 F100.0(Penetrate)
G01 X37.284101 Y-12.933915 Z-0.200000 F400.000000
G03 X39.270480 Y-12.933272 Z-0.200000 I0.705251 J887.574801
G02 X42.347617 Y-12.931053 Z-0.200000 I3.080972 J-2133.573736
G03 X42.323390 Y-10.455730 Z-0.200000 I-41.656072 J0.830079
G02 X42.278434 Y-8.213451 Z-0.200000 I57.607914 J2.276601
G02 X39.862997 Y-8.223862 Z-0.200000 I-1.443617 J54.728054
G03 X37.340056 Y-8.253809 Z-0.200000 I-0.756116 J-42.588807
G01 X37.340056 Y-8.253809 Z-0.200000
G00 Z2.000000

(Change tool to Default tool)

G00 Z2.000000
G00 X37.300126 Y-12.925102

G01 Z-0.200000 F100.0(Penetrate)
G01 X42.284001 Y-8.229734 Z-0.200000 F400.000000
G00 Z2.000000

(End cutting path id: path47)


(Start cutting path id: path46)
(Change tool to Default tool)

G00 Z2.000000
G00 X31.412357 Y-12.889866

G01 Z-0.200000 F100.0(Penetrate)
G01 X35.884022 Y-12.905853 Z-0.200000 F400.000000
G02 X35.868332 Y-11.527985 Z-0.200000 I963.605516 J11.662190
G02 X35.861663 Y-10.518546 Z-0.200000 I124.133460 J1.324824
G02 X33.632837 Y-10.519258 Z-0.200000 I-1.139878 J79.693684
G03 X31.404016 Y-10.509459 Z-0.200000 I-1.643118 J-120.251268
G01 X31.404016 Y-8.221464 Z-0.200000
G01 X35.956508 Y-8.213471 Z-0.200000
G00 Z2.000000

(End cutting path id: path46)


(Start cutting path id: rect1)
(Change tool to Default tool)

G00 Z2.000000
G00 X18.999994 Y-19.000114

G01 Z-0.200000 F100.0(Penetrate)
G01 X68.999979 Y-19.000114 Z-0.200000 F400.000000
G01 X68.999979 Y-69.000099 Z-0.200000
G01 X18.999994 Y-69.000099 Z-0.200000
G01 X18.999994 Y-19.000114 Z-0.200000
G00 Z2.000000

(End cutting path id: rect1)


(Footer)
M5
G00 X0.0000 Y0.0000
M2
(Using default footer. To add your own footer create file "footer" in the output dir.)
(end)
%